X: 11
T: Walls Of Liscarrol, The
Z: ChristianRo
S: https://thesession.org/tunes/232#setting49998
R: jig
M: 6/8
L: 1/8
K: Dmix
|:dcA AGE|GED D2E|GEE cEE|GAB cde|
dcA AGE|GED D2E|GEE cEE|D3 D3:|
|:d^cd e=cA|d^cd e=cA|GEE cEE|GAB cde|
[1 d^cd e=cA|d^cd e=cA|GEE cEE|DED D3:|
[2 dcA AGE|GED D2E|GEE cEE|D3 D3||

